X:1
T:Pleasures of Spa, The
M:2/4
L:1/8
R:March
S:Joshua Cushing – Fifer’s Companion No. 1 (1805, p. 67)
Z:AK/Fiddler’s Companion
K:D
d2 Af |d2 Aa| ff g/f/e/d/|e/d/c/B/ A2|dd/d/ ee/e/|
ff/f/ gg/g/|aa b/a/g/f/|Tf2e2|e2 Ag|f/g/a/f/ d2|
e2Ag|f/g/a/f/ d2|aa/a/ gg/g/|ff/f/ ee/e/|fa a/g/f/e/|
|1 d2D2:|2 d2d'2||AA/G/ FG|A3F|GG EE|F/E/F/G/ FD|
AA/G/ FG| A3F|GG FD| F2Ez|GG/F/ EF|G3E|
FG AF|GF E2|AA/G/ FG|AA/G/ F2|GG EE|D4||

